Obsidian-SemiLight/actions/24s/view-list-text.svg

<svg viewBox="0 0 24 24" xmlns="http://www.w3.org/2000/svg"><path d="m4 4v1h16v-1zm0 2v1h9v-1zm0 4v1h16v-1zm0 2v1h10v-1zm0 4v1h16v-1zm0 2v1h13v-1zm14 1v1h2v-1z" fill="#4d4d4d"/></svg>

<svg xmlns="http://www.w3.org/2000/svg" viewBox="0 0 24 24">
  <defs id="defs3051">
    <style type="text/css" id="current-color-scheme">
      .ColorScheme-Text {
        color:#4d4d4d;
      }
      </style>
  </defs>
 <path style="fill:currentColor;fill-opacity:1;stroke:none" 
     d="M 4 4 L 4 5 L 20 5 L 20 4 L 4 4 z M 4 6 L 4 7 L 13 7 L 13 6 L 4 6 z M 4 10 L 4 11 L 20 11 L 20 10 L 4 10 z M 4 12 L 4 13 L 14 13 L 14 12 L 4 12 z M 4 16 L 4 17 L 20 17 L 20 16 L 4 16 z M 4 18 L 4 19 L 17 19 L 17 18 L 4 18 z M 18 19 L 18 20 L 20 20 L 20 19 L 18 19 z "
     class="ColorScheme-Text"
     />
</svg>
